dhis-2/dhis-support/dhis-support-system/src/main/resources/SVGs/male_condom_negative.svg

<svg width="48" height="48" viewBox="0 0 48 48" fill="none" xmlns="http://www.w3.org/2000/svg">
<path fill-rule="evenodd" clip-rule="evenodd" d="M0 0V47.9994H47.9994V0H0ZM19.7538 4.00975L19.8628 4.48434C19.8808 4.56174 19.8998 4.64074 19.9178 4.71874L19.9118 4.72654L20.0327 5.25193L20.6037 7.7167L23.0657 7.14831L23.2987 7.09561L23.2967 7.08781L23.7987 6.97451V6.97841L23.9157 7.47841H23.9117L23.9647 7.7069L24.5327 10.1719L26.9977 9.60338L27.2267 9.55068L27.2247 9.54288L27.7267 9.42958V9.43348H27.7297L27.8476 9.93348H27.8397L27.8927 10.1639L28.4626 12.6268L30.9256 12.0608L31.1616 12.0038V12.0018L31.6616 11.8889L31.8276 12.6208L32.3976 15.0858L34.8626 14.5178L35.0916 14.4628L35.0896 14.4548L35.5916 14.3438V14.3458L35.7106 14.8458L35.7046 14.8478L35.7576 15.0758L36.3275 17.5388L38.7925 16.9728L39.0205 16.9178V16.9158L39.3745 16.8358L39.5225 16.8008L39.6425 17.3008L39.6365 17.3028L39.6885 17.5348L40.2575 19.9977L40.3315 19.9817L40.3295 19.9788L40.9215 19.8418C41.9225 19.6058 42.9705 19.3568 43.9545 19.1448V19.1458L43.5715 19.7598L43.5655 19.7618L28.7926 43.3975V43.4015L28.4096 44.0134L28.4076 44.0154C28.3606 43.8245 28.3176 43.6185 28.2706 43.4235C28.2616 43.3825 28.2526 43.3465 28.2436 43.3065C28.0616 42.5355 27.8807 41.7525 27.7067 40.9835L27.5697 40.3905H27.5717L27.5567 40.3175L25.0917 40.8845L24.8587 40.9385L24.8607 40.9445L24.3587 41.0585L24.3257 40.9075L24.2417 40.5565H24.2457L24.1927 40.3255L23.6227 37.8605L21.1597 38.4295L20.9297 38.4815L20.9317 38.4855L20.4297 38.5995L20.4277 38.6015L20.3107 38.1015L20.3177 38.0995L20.2657 37.8685L19.6968 35.4036L17.2318 35.9706L16.4998 36.1425L16.3828 35.6426H16.3848L16.3318 35.4056L15.7618 32.9426L13.2988 33.5096L13.0678 33.5616L13.0698 33.5696L12.5698 33.6836L12.5678 33.6816H12.5658L12.4488 33.1816L12.4568 33.1796L12.4038 32.9506L11.8339 30.4876L9.36898 31.0546L9.14049 31.1066L9.14249 31.1126L8.64049 31.2246L8.63859 31.2266L8.51939 30.7266L8.52719 30.7246L8.47449 30.4916L7.9042 28.0286L5.44133 28.5956L4.91984 28.7166L4.91794 28.7206C4.84824 28.7366 4.77864 28.7516 4.70894 28.7676C4.62844 28.7856 4.54824 28.8046 4.46874 28.8236L4.21475 28.8826L4.21285 28.8806L4.59174 28.2726V28.2676L4.59564 28.2656L19.3645 4.63294L19.7535 4.00975H19.7538ZM24.0507 14.5676C18.8348 14.5656 14.6058 18.7916 14.6038 24.0075C14.6008 29.2214 18.8258 33.4504 24.0407 33.4544C29.2566 33.4574 33.4866 29.2324 33.4896 24.0175C33.4916 20.8995 31.9546 17.9836 29.3826 16.2226C27.8127 15.1466 25.9537 14.5696 24.0507 14.5676ZM24.0507 16.8666C25.4897 16.8686 26.8967 17.3056 28.0836 18.1186C30.0296 19.4516 31.1916 21.6565 31.1906 24.0155C31.1886 27.9614 27.9877 31.1604 24.0407 31.1574C20.0947 31.1544 16.8998 27.9544 16.9018 24.0095C16.9038 20.0625 20.1037 16.8646 24.0507 16.8666Z" fill="#333333"/>
</svg>

<?xml version="1.0" encoding="UTF-8" standalone="no"?>
<!-- Created with Inkscape (http://www.inkscape.org/) -->
<svg id="svg8" xmlns:rdf="http://www.w3.org/1999/02/22-rdf-syntax-ns#" xmlns="http://www.w3.org/2000/svg" xmlns:osb="http://www.openswatchbook.org/uri/2009/osb" height="48" width="48" version="1.1" xmlns:cc="http://creativecommons.org/ns#" viewBox="0 0 12.7 12.7" xmlns:dc="http://purl.org/dc/elements/1.1/">
 <title id="title4753">UIO-icon</title>
 <metadata id="metadata5">
  <rdf:RDF>
   <cc:Work rdf:about="">
    <dc:format>image/svg+xml</dc:format>
    <dc:type rdf:resource="http://purl.org/dc/dcmitype/StillImage"/>
    <dc:title>UIO-icon</dc:title>
    <dc:creator>
     <cc:Agent>
      <dc:title>Joaquín Urbano</dc:title>
     </cc:Agent>
    </dc:creator>
    <dc:rights>
     <cc:Agent>
      <dc:title>GPL</dc:title>
     </cc:Agent>
    </dc:rights>
   </cc:Work>
  </rdf:RDF>
 </metadata>
 <g id="layer1" fill="#333" transform="translate(0,-284.3)">
  <path id="rect885" d="m0 0v48h48v-48h-48zm19.754 4.0098l0.109 0.4746c0.018 0.0774 0.037 0.1564 0.055 0.2344l-0.006 0.0078 0.121 0.5254 0.571 2.4648 2.462-0.5684 0.233-0.0527-0.002-0.0078 0.502-0.1133v0.0039l0.117 0.5h-0.004l0.053 0.2285 0.568 2.465 2.465-0.5685 0.229-0.0527-0.002-0.0078 0.502-0.1133v0.0039h0.003l0.118 0.5h-0.008l0.053 0.2304 0.57 2.463 2.463-0.566 0.236-0.057v-0.002l0.5-0.113 0.166 0.732 0.57 2.465 2.465-0.568 0.229-0.055-0.002-0.008 0.502-0.111v0.002l0.119 0.5-0.006 0.002 0.053 0.228 0.57 2.463 2.465-0.566 0.228-0.055v-0.002l0.354-0.08 0.148-0.035 0.12 0.5-0.006 0.002 0.052 0.232 0.569 2.463 0.074-0.016-0.002-0.003 0.592-0.137c1.001-0.236 2.049-0.485 3.033-0.697v0.001l-0.383 0.614-0.006 0.002-14.773 23.636v0.004l-0.383 0.612-0.002 0.002c-0.047-0.191-0.09-0.397-0.137-0.592-0.009-0.041-0.018-0.077-0.027-0.117-0.182-0.771-0.363-1.554-0.537-2.323l-0.137-0.593h0.002l-0.015-0.073-2.465 0.567-0.233 0.054 0.002 0.006-0.502 0.114-0.033-0.151-0.084-0.351h0.004l-0.053-0.231-0.57-2.465-2.463 0.569-0.23 0.052 0.002 0.004-0.502 0.114-0.002 0.002-0.117-0.5 0.007-0.002-0.052-0.231-0.569-2.465-2.465 0.567-0.732 0.172-0.117-0.5h0.002l-0.053-0.237-0.57-2.463-2.463 0.567-0.231 0.052 0.002 0.008-0.5 0.114-0.002-0.002h-0.002l-0.117-0.5 0.008-0.002-0.053-0.229-0.57-2.463-2.4649 0.567-0.2285 0.052 0.002 0.006-0.502 0.112-0.0019 0.002-0.1192-0.5 0.0078-0.002-0.0527-0.233-0.5703-2.463-2.4629 0.567-0.5215 0.121-0.0019 0.004c-0.0697 0.016-0.1393 0.031-0.209 0.047-0.0805 0.018-0.1607 0.037-0.2402 0.056l-0.254 0.059-0.0019-0.002 0.3789-0.608v-0.005l0.0039-0.002 14.769-23.633 0.389-0.6232zm4.297 10.558c-5.216-0.002-9.445 4.224-9.447 9.44-0.003 5.214 4.222 9.443 9.437 9.447 5.216 0.003 9.446-4.222 9.449-9.437 0.002-3.118-1.535-6.034-4.107-7.795-1.57-1.076-3.429-1.653-5.332-1.655zm0 2.299c1.439 0.002 2.846 0.439 4.033 1.252 1.946 1.333 3.108 3.538 3.107 5.897-0.002 3.946-3.203 7.145-7.15 7.142-3.946-0.003-7.141-3.203-7.139-7.148 0.002-3.947 3.202-7.145 7.149-7.143z" fill-rule="evenodd" transform="matrix(.26458 0 0 .26458 0 284.3)"/>
 </g>
</svg>
